X:116
T:Staten Island
R:hornpipe
H:Also played as a reel
Z:id:hn-hornpipe-116
M:C|
L:1/8
K:D
AG | FDFG A2Bc | dfec dcBA | B2GB A2FA | GEED E2AG |
FDFG A2Bc | dfec dcBA | d2cd efge |1 f2d2 d2 :|2 f2d2 defg ||
|: a2fa gfeg | fedf ecAB | =c2c2 efge | =c2c2 efge |
a2fa gfeg | fedf ecAc | d2cd efge |1 f2d2 defg :|2 f2d2 d2 ||
P:variations
|: AF | DEFG A2FA | dfec dcBA | B2GB AFDF | G2E2 E2AF |
DEFG A2FA | dfec dcBA | d2 (3Bcd efge |1 fddc d2 :|2 fddc defg ||
|: agfa g2eg | fedf ecAB | =cBcd efge | =cBcd efge |
agfa g2eg | fedf ecAB | d2 (3Bcd efge |1 fddc defg :|2 fddc d2 ||

